X:435
T:The Good Ship Planet
N:"Cheerfully"
N:Irish title: an lung brea.d plainead
B:O'Neill's 435
Z:Transcribed by henrik.norbeck@mailbox.swipnet.se
M:6/8
L:1/8
K:G
E/F/|GAF GEE/F/|GAB dBd|efe dBA|GFG/A/ B2 E/F/|
GAF GEE/F/|GAB dBd|efe dBG|ABAGG G2||
G/A/|BcB gag|fed edB/A/|.BAG/A/ GFE/F/|EFG/A/ B2 E/F/|
GAF GEE/F/|GAB dBd|efe dBG|TAGG G2||
